X:1
T: Jenny's Well
C:Muriel A Johnstone
R:Strathspey
%Q: 128
K:G
M:4/4
L:1/16
D4|B6 d2 c2B2 A2G2|e4 d4 c2B2 A2G2|F6 A2 G2F2 G2B2|B4 A2G2 A4 D4|
B6 d2 c2B2 A2G2|e4 d4 c2B2 A2G2|G2F2 E2D2 E4 F4|G6 A2 G4 g2a2|
b4 B4 d4 B4|G8 G2A2 B2d2|e2f2 g4 g2f2 g4|e2f2 g2b2 a4 g2a2|
b4 B4 d4 B4|G4 g2f2 e4 e2d2|d4 B2G2 E4 F4|G6 A2 G4 g2a2|
b4 B4 d4 B4|G8 G2A2 B2d2|e2f2 g4 g2f2 g4|e2f2 g2b2 a4 D4|
B6 d2 c2B2 A2G2|e4 d4 c2d2 e2g2|g2f2 e2d2 e4 f4|g6 a2 g4 D4|
B6 d2 c2B2 A2G2|e4 d4 c2B2 A2G2|F6 A2 G2F2 G2B2|B4 A2G2 A4 D4|
B6 d2 c2B2 A2G2|e4 d4 c2B2 A2G2|G2F2 E2D2 E4 F4|G6 A2 G4||
